packages/core/src/svgs/tokens/branded/BCMC.svg

<svg width="24" height="24" viewBox="0 0 24 24" fill="none" xmlns="http://www.w3.org/2000/svg">
<path fill-rule="evenodd" clip-rule="evenodd" d="M12 20.8235C14.3401 20.8235 16.5845 19.8938 18.2392 18.2392C19.8939 16.5845 20.8236 14.3401 20.8236 12C20.8236 9.65983 19.8939 7.41554 18.2392 5.76081C16.5845 4.10608 14.3401 3.17647 12 3.17647C9.65982 3.17647 7.41555 4.10608 5.76082 5.76081C4.10608 7.41554 3.17647 9.65983 3.17647 12C3.17647 14.3401 4.10608 16.5845 5.76082 18.2392C7.41555 19.8938 9.65982 20.8235 12 20.8235ZM12 22C14.6522 22 17.1957 20.9464 19.0711 19.071C20.9464 17.1957 22 14.6522 22 12C22 9.34785 20.9464 6.80429 19.0711 4.92892C17.1957 3.05357 14.6522 2 12 2C9.34784 2 6.80429 3.05357 4.92892 4.92892C3.05357 6.80429 2 9.34785 2 12C2 14.6522 3.05357 17.1957 4.92892 19.071C6.80429 20.9464 9.34784 22 12 22Z" fill="url(#paint0_linear_364_9652)"/>
<path d="M12.0001 6.11764H8.47067V12L9.64714 11.4117V7.2941H12.0001C12.3984 7.29385 12.7852 7.42841 13.0975 7.67589C13.4096 7.92337 13.6289 8.26921 13.7196 8.65714C13.8102 9.04508 13.767 9.4523 13.5968 9.81245C13.4267 10.1727 13.1396 10.4648 12.7825 10.6412C9.54709 12.2471 6.23538 13.7588 2.97656 15.3353L3.49421 16.3941L12.3942 12.0647C12.3942 12.0647 13.7766 11.4764 14.1707 11.0412C14.5603 10.6218 14.8186 10.0977 14.9136 9.53328C15.0086 8.96883 14.9363 8.38894 14.7054 7.86522C14.4744 7.3415 14.0952 6.89687 13.6144 6.58631C13.1337 6.27573 12.5725 6.11279 12.0001 6.11764ZM21.5412 9.5529L21.0236 8.49409L14.8825 11.6941C15.3434 11.9429 15.708 12.3384 15.9189 12.8178C16.1295 13.2972 16.1744 13.8333 16.0461 14.341C15.9178 14.8489 15.6238 15.2993 15.2105 15.6211C14.7974 15.9429 14.2886 16.1177 13.7648 16.1177H9.64714V14.1588L8.47067 14.7588V17.2941H13.7648C14.3962 17.2946 15.0161 17.1257 15.5601 16.8049C16.104 16.4843 16.5519 16.0235 16.8571 15.4708C17.1624 14.9179 17.3136 14.2934 17.2954 13.6623C17.2771 13.0311 17.0898 12.4165 16.753 11.8824L21.5412 9.5529Z" fill="url(#paint1_linear_364_9652)"/>
<defs>
<linearGradient id="paint0_linear_364_9652" x1="12" y1="2" x2="12" y2="22" gradientUnits="userSpaceOnUse">
<stop stop-color="#FCAB2F"/>
<stop offset="1" stop-color="#E45E0E"/>
</linearGradient>
<linearGradient id="paint1_linear_364_9652" x1="12.0001" y1="1.99999" x2="12.0001" y2="22" gradientUnits="userSpaceOnUse">
<stop stop-color="#FCAB2F"/>
<stop offset="1" stop-color="#E45E0E"/>
</linearGradient>
</defs>
</svg>

<svg xmlns="http://www.w3.org/2000/svg" width="24" height="24" fill="none" viewBox="0 0 24 24">
    <path fill="url(#BCMC__a)" fill-rule="evenodd" d="M12 20.824a8.824 8.824 0 1 0 0-17.649 8.824 8.824 0 0 0 0 17.649M12 22a10 10 0 1 0 0-20 10 10 0 0 0 0 20" clip-rule="evenodd"/>
    <path fill="url(#BCMC__b)" d="M12 6.118H8.47V12l1.177-.588V7.294H12a1.765 1.765 0 0 1 .783 3.347c-3.236 1.606-6.548 3.118-9.806 4.694l.517 1.06 8.9-4.33s1.383-.589 1.777-1.024A2.93 2.93 0 0 0 12 6.118m9.541 3.435-.517-1.059-6.142 3.2a2.354 2.354 0 0 1-1.117 4.424H9.647v-1.96l-1.176.6v2.536h5.294a3.529 3.529 0 0 0 2.988-5.412z"/>
    <defs>
        <linearGradient id="BCMC__a" x1="12" x2="12" y1="2" y2="22" gradientUnits="userSpaceOnUse">
            <stop stop-color="#FCAB2F"/>
            <stop offset="1" stop-color="#E45E0E"/>
        </linearGradient>
        <linearGradient id="BCMC__b" x1="12" x2="12" y1="2" y2="22" gradientUnits="userSpaceOnUse">
            <stop stop-color="#FCAB2F"/>
            <stop offset="1" stop-color="#E45E0E"/>
        </linearGradient>
    </defs>
</svg>
